assets/icons/librescoot-turtle-mode.svg

<svg xmlns="http://www.w3.org/2000/svg" width="144" height="144" fill="none" viewBox="0 0 144 144"><g clip-path="url(#a)"><mask id="b" width="144" height="144" x="0" y="0" maskUnits="userSpaceOnUse" style="mask-type:alpha"><path fill="#d9d9d9" d="M0 0h144v144H0z"/></mask><g fill="#fff" mask="url(#b)"><path d="M78.5116 46.2793c-18.3628.2604-28.1628 18.7219-30.9302 27.3488 0-1.5737-1.8558-5.1117-7.3256-8.6279s-13.0775-2.3323-16.6046-1.3013c-2.6589 1.1396-6.0558 5.0129.3255 11.3943 7.1628 7.1628 15.3024 10.7442 20.3489 11.8848-1.3023.8139-2.3526 3.4186-2.9303 5.2093-1.3023 4.0372.7597 5.2093 2.1163 5.6977 2.9303.217 9.214-.0326 10.2558-1.4651 1.3024-1.7907 1.9535-5.2998 3.0931-5.0466 6.5116 1.4471 28.3255.9768 42-.4883.2713 1.248 1.9205 4.0697 3.0925 5.3721 1.466 1.6279 6.838 1.6279 10.907.4883 3.256-.9116 2.768-3.7984 2.117-5.2093-.977-2.1162-3.093-5.2093-1.465-6.5116 3.241-2.5927 3.744-1.9535 7.651-4.3953 3.093-2.6047 3.256-4.884 1.628-6.1863-1.628-1.3024-8.303.9767-10.907-2.1163-4.396-8.9535-15.0096-26.3078-33.3724-26.0473"/><path d="M142 72c0 38.66-31.34 70-70 70S2 110.66 2 72 33.3401 2 72 2s70 31.3401 70 70M12.4496 72c0 32.889 26.6616 59.55 59.5504 59.55 32.889 0 59.55-26.661 59.55-59.55 0-32.8888-26.661-59.5504-59.55-59.5504-32.8888 0-59.5504 26.6616-59.5504 59.5504"/></g></g><defs><clipPath id="a"><path fill="#fff" d="M0 0h144v144H0z"/></clipPath></defs></svg>

<svg width="144" height="144" viewBox="0 0 144 144" fill="none" xmlns="http://www.w3.org/2000/svg">
  <g clip-path="url(#clip0_705_202)">
    <mask id="mask0_705_202" style="mask-type:alpha" maskUnits="userSpaceOnUse" x="0" y="0"
      width="144" height="144">
      <rect width="144" height="144" fill="#D9D9D9" />
    </mask>
    <g mask="url(#mask0_705_202)">
      <path
        d="M78.5116 46.2793C60.1488 46.5397 50.3488 65.0012 47.5814 73.6281C47.5814 72.0544 45.7256 68.5164 40.2558 65.0002C34.786 61.4839 27.1783 62.6679 23.6512 63.6989C20.9923 64.8385 17.5954 68.7118 23.9767 75.0932C31.1395 82.256 39.2791 85.8374 44.3256 86.978C43.0233 87.7919 41.973 90.3966 41.3953 92.1873C40.093 96.2245 42.155 97.3966 43.5116 97.885C46.4419 98.102 52.7256 97.8524 53.7674 96.4199C55.0698 94.6292 55.7209 91.1201 56.8605 91.3733C63.3721 92.8204 85.186 92.3501 98.8605 90.885C99.1318 92.133 100.781 94.9547 101.953 96.2571C103.419 97.885 108.791 97.885 112.86 96.7454C116.116 95.8338 115.628 92.947 114.977 91.5361C114 89.4199 111.884 86.3268 113.512 85.0245C116.753 82.4318 117.256 83.071 121.163 80.6292C124.256 78.0245 124.419 75.7452 122.791 74.4429C121.163 73.1405 114.488 75.4196 111.884 72.3266C107.488 63.3731 96.8744 46.0188 78.5116 46.2793Z"
        fill="white" />
      <path
        d="M142 72C142 110.66 110.66 142 72 142C33.3401 142 2 110.66 2 72C2 33.3401 33.3401 2 72 2C110.66 2 142 33.3401 142 72ZM12.4496 72C12.4496 104.889 39.1112 131.55 72 131.55C104.889 131.55 131.55 104.889 131.55 72C131.55 39.1112 104.889 12.4496 72 12.4496C39.1112 12.4496 12.4496 39.1112 12.4496 72Z"
        fill="white" />
    </g>
  </g>
  <defs>
    <clipPath id="clip0_705_202">
      <rect width="144" height="144" fill="white" />
    </clipPath>
  </defs>
</svg>
